X:1
T:Drummond Castle
R:Jig
M:6/8
K:Em
L:1/8
|EFE e3|edB d3|G2 G BAG|FAd AFD|\
EFE e3|edB d3|BdB ABd|BAF E2 :|
|: F|G2 G GBG| A2 A ABA|G2 G BAG|FAd AFD|\
G2 G BAG|ABd e3|BdB ABd|BAF E2 :|
